X:7613
T:Tommy Meara's
O:england
M:4/4
R:Reel
S:Father Chalie's self titled cassette
N:transposed by m euritt
K:G
G2BG DGBG| (3bgb) fg edBd|G2BG DGBG|DFAF dFAF|
G2BG DGBG| (3bgb) fg edBd| dedB dedB |AGFA G4:|
(3bgb) fg edBd| (3bgb) fg edBd| A2Ag fed2| A2Ag fed2|
(3bgb) fg edBd| (3bgb) fg edBd| dedB dedB |AGFA G4:|


